X: 865
T: Sally Johnson
C:Traditional
B: jims roots
M:4/4
L:1/8
Q: 1/4=100
K:G
V:1 
%N:Arranged for mandolin by Mike Stangeland
%Q:500
ge |: "G"dega baba | gbag efge | dega baba |
gbag "Em"[e2B2] ge | "G"dega baba | gbag efge |
gage dBAG |[1 "D"FDEF "G"G2 ge:|[2 "D"FDEF "G"G4||
|: "G"^ABGB =AGEG | DEGA BAGA | BAGB AGEG | DEGA "Em"BA G2 |
"G"^ABGB =AGEG | DEGA Bdef | gfga gedB | "D"AGFA "G"G4:|
% abcbook-tune_id 6298c28733d538a055803897


% abcbook-boost 0
% abcbook-tablature 
% abcbook-transpose 
% abcbook-lastupdated 1654178440100
% abcbook-soundfonts 
% abcbook-repeats 1


